X: 10422
T: QUADRILLE
C: James Warden.
%R: jig
B: W. Hamilton "Universal Tune-Book" Vol. 1 Glasgow 1844 p.42 #2
S: http://imslp.org/wiki/Hamilton's_Universal_Tune-Book_(Various)
Z: 2016 John Chambers <jc:trillian.mit.edu>
M: 6/8
L: 1/8
K: Bb
% - - - - - - - - - - - - - - - - - - - - - - - - -
F !segno!|\
F=EF d2c | B2d f2e | dfb gec | B3 A2F |\
F2F F2F | FBc d2f | g^fg =f=e_e | d2c B2 H|]\
c |\
d2d d2d | de=e f2_e | d2d g2f | f2e c2F |
F=EF B2_A | G2G E2G | FG_A =ABc | d2c B2 !segno!|]\
"^minore."D |\
G2G FED | B2B F2F | ^F2F G2G | A2B D2D |\
d3 dcB | c3 cBA | BAc BAG | G^FG DE"^D.C."=E |]
% - - - - - - - - - - - - - - - - - - - - - - - - -

%%sep 1 1 500
%%sep 1 1 500

